Dominus_Dark_Funeral/22/apps/debian-logo.svg

<svg xmlns="http://www.w3.org/2000/svg" width="24" height="24"><path d="M13.31.71c-.2.04-.45.02-.68.05zm-.68.05l-.35.02.15.03a.7.7 0 0 1 .2-.05zm-.85.1c-.56.03-1.35.35-1.11.07-.92.4-2.56.99-3.5 1.85v-.2c-.45.5-1.88 1.54-1.97 2.18l-.13.04c-.22.38-.34.8-.54 1.17-.27.5-.42.2-.37.27-.57 1.16-.84 2.12-1.09 2.91.17.24 0 1.56.07 2.59A11.6 11.6 0 0 0 11 23.04c.64.22 1.55.2 2.34.25-.94-.27-1.04-.14-1.98-.49-.64-.3-.78-.65-1.23-1.04l.17.32c-.91-.32-.52-.39-1.26-.64l.2-.25c-.3 0-.78-.5-.92-.73H8c-.39-.5-.58-.82-.58-1.1l-.1.18c-.13-.2-1.44-1.77-.75-1.4-.12-.13-.29-.2-.49-.52l.15-.17c-.32-.43-.59-.97-.57-1.14.18.24.3.27.4.32-.82-2.05-.87-.1-1.48-2.08h.12l-.25-.49.08-.56c-.6-.7-.18-2.92-.1-4.15.07-.5.5-1.04.84-1.86l-.2-.04c.37-.67 2.22-2.72 3.04-2.6.42-.49-.08 0-.15-.12.89-.94 1.16-.66 1.77-.83.64-.38-.56.17-.24-.15 1.1-.28.79-.64 2.27-.8.06.05-.02.1-.14.12a6.72 6.72 0 0 1 3.94.38c1.53.74 3.26 2.84 3.3 4.83h.08c-.02.82.13 1.73-.15 2.57l.2-.4c0 .6-.17.9-.37 1.41l-.32.18c-.25.49.02.32-.15.74-.42.37-1.26 1.13-1.53 1.24-.2-.03.12-.26.17-.35-.54.37-.44.56-1.28.81l-.02-.07c-2.1.98-5-.97-4.94-3.6-.05.16-.08.12-.13.2A3.34 3.34 0 0 1 12.3 7.7a3.15 3.15 0 0 1 3.5.46 3.06 3.06 0 0 0-2.54-1.23c-1.1 0-2.14.71-2.49 1.48-.56.34-.64 1.38-.88 1.55-.33 2.47.6 3.5 2.24 4.74.13.1.15.15.15.2 1.9.72 3.87.54 5.53-.78.41-.33.88-.9 1-.9-.19.3.05.15-.12.4.42-.67-.17-.25.45-1.16l.25.32c-.1-.57.66-1.24.58-2.15.18-.24.2.3 0 .91.28-.69.08-.78.15-1.36l.23.6c-.17-.67.17-1.14.24-1.5-.07-.06-.24.3-.29-.5 0-.35.1-.2.12-.27a1.65 1.65 0 0 1-.34-.81c.07-.13.22.32.32.32-.08-.4-.2-.7-.2-1.02-.3-.64-.1.1-.34-.27-.35-1.04.24-.25.29-.72.5.75.78 1.86.91 2.33a9.64 9.64 0 0 0-.44-1.66c.15.07-.25-1.16.2-.34a7.44 7.44 0 0 0-3.46-4.12c.17.14.4.34.32.39-.72-.44-.59-.47-.69-.64-.57-.25-.61 0-.99 0-1.08-.6-1.3-.52-2.3-.89l.03.22c-.72-.24-.83.1-1.6 0-.05-.05.24-.13.5-.17-.7.1-.67-.13-1.37.02zm.85.27h.12V1.1zm.12-.03c.24-.04.27-.1-.4-.12.2.05.45.08.4.13zM11.6 3.08c-.13.04-.28.07-.35.12.1-.05.22-.09.35-.12zM3.54 5.55c.08.52-.4.74.13.37.24-.62-.13-.15-.13-.37zm-.4 1.7c-.34.42-.14.5-.19.8.12-.38.14-.6.2-.8zm13.33 2.5c-.05 0-.1.12-.15.24.08.05.13.5.2.2.03-.33 0-.45-.05-.45zm4.1 1.13l-.07.15a6.66 6.66 0 0 1-.57 1.9c.33-.64.55-1.35.64-2.05zm-4.34.25c-.06.24-.18.5-.33.69-.69.44-.05-.25 0-.53-.74.95-.1.57-.12.85.25-.33.4-.64.45-.99zm-1.53 1.45c-.3.07-.62.07-.92.05-.37 0 .08.2.55.24zm-4.72.05c.07.3.25.56.42.84l-.12-.35a1.36 1.36 0 0 1-.3-.5zm-.3.5l-.04.27c.25.34.44.72.73.98-.2-.47-.36-.64-.69-1.23zm.47.41c.02 0 .03.02.04.03l-.01-.03zm.04.03c.88 1.54 3.53 2.69 4.93 2.12a6.46 6.46 0 0 1-2.22-.25c-.25-.14-.64-.44-.64-.54v.15a4.5 4.5 0 0 1-1.46-1.11c.22.32.44.61.74.86-.47-.16-1.11-1.12-1.35-1.24z" fill="#e6e6e6"/></svg>

<?xml version="1.0" encoding="UTF-8" standalone="no"?>
<svg
   xmlns:dc="http://purl.org/dc/elements/1.1/"
   xmlns:cc="http://creativecommons.org/ns#"
   xmlns:rdf="http://www.w3.org/1999/02/22-rdf-syntax-ns#"
   xmlns:svg="http://www.w3.org/2000/svg"
   xmlns="http://www.w3.org/2000/svg"
   xmlns:sodipodi="http://sodipodi.sourceforge.net/DTD/sodipodi-0.dtd"
   xmlns:inkscape="http://www.inkscape.org/namespaces/inkscape"
   width="24"
   height="24"
   version="1.1"
   id="svg4"
   sodipodi:docname="debian-logo.svg"
   inkscape:version="0.92.4 (5da689c313, 2019-01-14)">
  <metadata
     id="metadata10">
    <rdf:RDF>
      <cc:Work
         rdf:about="">
        <dc:format>image/svg+xml</dc:format>
        <dc:type
           rdf:resource="http://purl.org/dc/dcmitype/StillImage" />
        <dc:title></dc:title>
      </cc:Work>
    </rdf:RDF>
  </metadata>
  <defs
     id="defs8" />
  <sodipodi:namedview
     pagecolor="#ffffff"
     bordercolor="#666666"
     borderopacity="1"
     objecttolerance="10"
     gridtolerance="10"
     guidetolerance="10"
     inkscape:pageopacity="0"
     inkscape:pageshadow="2"
     inkscape:window-width="1142"
     inkscape:window-height="480"
     id="namedview6"
     showgrid="false"
     inkscape:zoom="9.8333333"
     inkscape:cx="1.2711864"
     inkscape:cy="12"
     inkscape:window-x="0"
     inkscape:window-y="25"
     inkscape:window-maximized="0"
     inkscape:current-layer="svg4" />
  <path
     d="m 13.31,0.71 c -0.2,0.04 -0.45,0.02 -0.68,0.05 z m -0.68,0.05 -0.35,0.02 0.15,0.03 a 0.7,0.7 0 0 1 0.2,-0.05 z m -0.85,0.1 C 11.22,0.89 10.43,1.21 10.67,0.93 9.75,1.33 8.11,1.92 7.17,2.78 V 2.58 C 6.72,3.08 5.29,4.12 5.2,4.76 L 5.07,4.8 C 4.85,5.18 4.73,5.6 4.53,5.97 4.26,6.47 4.11,6.17 4.16,6.24 3.59,7.4 3.32,8.36 3.07,9.15 c 0.17,0.24 0,1.56 0.07,2.59 A 11.6,11.6 0 0 0 11,23.04 c 0.64,0.22 1.55,0.2 2.34,0.25 C 12.4,23.02 12.3,23.15 11.36,22.8 10.72,22.5 10.58,22.15 10.13,21.76 l 0.17,0.32 C 9.39,21.76 9.78,21.69 9.04,21.44 l 0.2,-0.25 c -0.3,0 -0.78,-0.5 -0.92,-0.73 H 8 C 7.61,19.96 7.42,19.64 7.42,19.36 l -0.1,0.18 C 7.19,19.34 5.88,17.77 6.57,18.14 6.45,18.01 6.28,17.94 6.08,17.62 L 6.23,17.45 C 5.91,17.02 5.64,16.48 5.66,16.31 c 0.18,0.24 0.3,0.27 0.4,0.32 C 5.24,14.58 5.19,16.53 4.58,14.55 H 4.7 L 4.45,14.06 4.53,13.5 C 3.93,12.8 4.35,10.58 4.43,9.35 4.5,8.85 4.93,8.31 5.27,7.49 L 5.07,7.45 C 5.44,6.78 7.29,4.73 8.11,4.85 8.53,4.36 8.03,4.85 7.96,4.73 8.85,3.79 9.12,4.07 9.73,3.9 10.37,3.52 9.17,4.07 9.49,3.75 10.59,3.47 10.28,3.11 11.76,2.95 11.82,3 11.74,3.05 11.62,3.07 a 6.72,6.72 0 0 1 3.94,0.38 c 1.53,0.74 3.26,2.84 3.3,4.83 h 0.08 c -0.02,0.82 0.13,1.73 -0.15,2.57 l 0.2,-0.4 c 0,0.6 -0.17,0.9 -0.37,1.41 l -0.32,0.18 c -0.25,0.49 0.02,0.32 -0.15,0.74 -0.42,0.37 -1.26,1.13 -1.53,1.24 -0.2,-0.03 0.12,-0.26 0.17,-0.35 -0.54,0.37 -0.44,0.56 -1.28,0.81 l -0.02,-0.07 c -2.1,0.98 -5,-0.97 -4.94,-3.6 -0.05,0.16 -0.08,0.12 -0.13,0.2 A 3.34,3.34 0 0 1 12.3,7.7 3.15,3.15 0 0 1 15.8,8.16 3.06,3.06 0 0 0 13.26,6.93 c -1.1,0 -2.14,0.71 -2.49,1.48 -0.56,0.34 -0.64,1.38 -0.88,1.55 -0.33,2.47 0.6,3.5 2.24,4.74 0.13,0.1 0.15,0.15 0.15,0.2 1.9,0.72 3.87,0.54 5.53,-0.78 0.41,-0.33 0.88,-0.9 1,-0.9 -0.19,0.3 0.05,0.15 -0.12,0.4 0.42,-0.67 -0.17,-0.25 0.45,-1.16 l 0.25,0.32 c -0.1,-0.57 0.66,-1.24 0.58,-2.15 0.18,-0.24 0.2,0.3 0,0.91 0.28,-0.69 0.08,-0.78 0.15,-1.36 l 0.23,0.6 c -0.17,-0.67 0.17,-1.14 0.24,-1.5 -0.07,-0.06 -0.24,0.3 -0.29,-0.5 0,-0.35 0.1,-0.2 0.12,-0.27 A 1.65,1.65 0 0 1 20.08,7.7 C 20.15,7.57 20.3,8.02 20.4,8.02 20.32,7.62 20.2,7.32 20.2,7 19.9,6.36 20.1,7.1 19.86,6.73 19.51,5.69 20.1,6.48 20.15,6.01 c 0.5,0.75 0.78,1.86 0.91,2.33 A 9.64,9.64 0 0 0 20.62,6.68 c 0.15,0.07 -0.25,-1.16 0.2,-0.34 A 7.44,7.44 0 0 0 17.36,2.22 c 0.17,0.14 0.4,0.34 0.32,0.39 C 16.96,2.17 17.09,2.14 16.99,1.97 16.42,1.72 16.38,1.97 16,1.97 14.92,1.37 14.7,1.45 13.7,1.08 L 13.73,1.3 C 13.01,1.06 12.9,1.4 12.13,1.3 12.08,1.25 12.37,1.17 12.63,1.13 11.93,1.23 11.96,1 11.26,1.15 Z m 0.85,0.27 h 0.12 V 1.1 Z M 12.75,1.1 c 0.24,-0.04 0.27,-0.1 -0.4,-0.12 0.2,0.05 0.45,0.08 0.4,0.13 z M 11.6,3.08 C 11.47,3.12 11.32,3.15 11.25,3.2 11.35,3.15 11.47,3.11 11.6,3.08 Z M 3.54,5.55 C 3.62,6.07 3.14,6.29 3.67,5.92 3.91,5.3 3.54,5.77 3.54,5.55 Z m -0.4,1.7 C 2.8,7.67 3,7.75 2.95,8.05 3.07,7.67 3.09,7.45 3.15,7.25 Z m 13.33,2.5 c -0.05,0 -0.1,0.12 -0.15,0.24 0.08,0.05 0.13,0.5 0.2,0.2 0.03,-0.33 0,-0.45 -0.05,-0.45 z m 4.1,1.13 -0.07,0.15 a 6.66,6.66 0 0 1 -0.57,1.9 c 0.33,-0.64 0.55,-1.35 0.64,-2.05 z m -4.34,0.25 c -0.06,0.24 -0.18,0.5 -0.33,0.69 -0.69,0.44 -0.05,-0.25 0,-0.53 -0.74,0.95 -0.1,0.57 -0.12,0.85 0.25,-0.33 0.4,-0.64 0.45,-0.99 z m -1.53,1.45 c -0.3,0.07 -0.62,0.07 -0.92,0.05 -0.37,0 0.08,0.2 0.55,0.24 z m -4.72,0.05 c 0.07,0.3 0.25,0.56 0.42,0.84 l -0.12,-0.35 a 1.36,1.36 0 0 1 -0.3,-0.5 z m -0.3,0.5 -0.04,0.27 c 0.25,0.34 0.44,0.72 0.73,0.98 -0.2,-0.47 -0.36,-0.64 -0.69,-1.23 z m 0.47,0.41 c 0.02,0 0.03,0.02 0.04,0.03 l -0.01,-0.03 z m 0.04,0.03 c 0.88,1.54 3.53,2.69 4.93,2.12 A 6.46,6.46 0 0 1 12.9,15.44 C 12.65,15.3 12.26,15 12.26,14.9 v 0.15 A 4.5,4.5 0 0 1 10.8,13.94 c 0.22,0.32 0.44,0.61 0.74,0.86 -0.47,-0.16 -1.11,-1.12 -1.35,-1.24 z"
     id="path2"
     inkscape:connector-curvature="0"
     style="fill:#e6e6e6" />
</svg>
